icon-themes/sifr_svg/cmd/lc_dbdistinctvalues.svg

<svg viewBox="0 0 24 24" xmlns="http://www.w3.org/2000/svg"><path d="m3 2v1l2 2 2-2v-1zm5 0v1l2 2 2-2v-1zm5 0v1l2 2 2-2v-1zm-9 4c-.55 0-1 .45-1 1v1h14v-1c0-.55-.45-1-1-1zm-1 3c0 1 0 1 1 2l4 4h4l4-4c1-1 1-1 1-2zm18 4-6 6-2-2-2 2 4 4 8-8zm-13 3v5c0 .9 1.08 1.34 1.71.71l1.29-1.31-1.4-1.4 2.4-2.4v-.6z" fill="#555753"/></svg>

<svg xmlns="http://www.w3.org/2000/svg" viewBox="0 0 24 24">
  <path
     style="fill:#555753"
     d="M 3 2 L 3 3 L 5 5 L 7 3 L 7 2 L 3 2 z M 8 2 L 8 3 L 10 5 L 12 3 L 12 2 L 8 2 z M 13 2 L 13 3 L 15 5 L 17 3 L 17 2 L 13 2 z M 4 6 C 3.45 6 3 6.45 3 7 L 3 8 L 17 8 L 17 7 C 17 6.45 16.55 6 16 6 L 4 6 z M 3 9 C 3 10 3 10 4 11 L 8 15 L 12 15 L 16 11 C 17 10 17 10 17 9 L 3 9 z M 21 13 L 15 19 L 13 17 L 11 19 L 15 23 L 23 15 L 21 13 z M 8 16 L 8 21 C 8 21.9 9.08 22.34 9.71 21.71 L 11 20.4 L 9.6 19 L 12 16.6 L 12 16 L 8 16 z "
     />
</svg>
